X: 1966
T: Warrnambool Waltz Song
C:Reginald Stoneham, pub in 'Weekly Times', 1932
B: australian traditional tunes wiki
M:3/4
L:1/8
R: Waltz
Q: 1/4=100
K:G
V:1 
B2|:"G"d3d/^c/ d>B|"D7"c4d2|"G"B6-|B4z2|B2-B>^A B>G|"D7"A4B2|"G"G6-|G4=F2|
"C"E4G2|c2G2A2|"G"B6|G6|"D7"A4B2|A4E2|F6|d4D2:|
"G"d>c B>cd2-|d4B2|"D7"c>BA4-|A4D2|c>B A>Bc2-|c4d2|"G"B>AG4-|G4=F2|
"C"E>^DE2F2|G4A2|"G"B>AG2A2|B4B2|"A7"A>BA2E2|A4E2|"D7"F>GA4-|A4D2|
"G"d>cB2c2|d4B2|"D7"c>BA4-|A4D2|c>BA2B2|c4d2|"G"B>cd4-|d2B2G2|
"C"E>^DE2F2|G4A2|"G"B>^A B>=A G>A|"A7"B4E2|"D7"c>d e>d c>B|A4d2|"G"B>AG4-|G4z2||
% abcbook-tune_id 6342d5be5fd28f4c9f7d3b74


% abcbook-boost 0
% abcbook-tablature 
% abcbook-transpose 
% abcbook-lastupdated 1665324491108
% abcbook-soundfonts 
% abcbook-repeats 1
% NFF Book 2018

